img/twitter.svg

<svg width="18" height="15" viewBox="0 0 18 15" fill="none" xmlns="http://www.w3.org/2000/svg">
<path d="M18.0001 2.00408C17.3376 2.29764 16.6268 2.49673 15.8799 2.58561C16.6425 2.12893 17.2263 1.40458 17.503 0.544111C16.7876 0.967023 15.998 1.27411 15.1566 1.44058C14.4829 0.721846 13.5246 0.27417 12.4616 0.27417C10.4224 0.27417 8.76895 1.92761 8.76895 3.96573C8.76895 4.25479 8.80157 4.53711 8.86457 4.80708C5.79615 4.65296 3.0753 3.18287 1.25427 0.949023C0.935947 1.49343 0.754859 2.12779 0.754859 2.80493C0.754859 4.08608 1.40724 5.21649 2.39706 5.87784C1.79192 5.85761 1.22277 5.69114 0.724506 5.41443V5.46055C0.724506 7.24896 1.99777 8.74155 3.68606 9.08125C3.37674 9.16449 3.05056 9.21061 2.71312 9.21061C2.47468 9.21061 2.24409 9.18699 2.01801 9.14199C2.48815 10.6098 3.85142 11.6773 5.46662 11.7065C4.20348 12.6963 2.61077 13.2846 0.880859 13.2846C0.5828 13.2846 0.289211 13.2666 0.000152588 13.234C1.63448 14.2834 3.57474 14.8953 5.66009 14.8953C12.4527 14.8953 16.1656 9.26911 16.1656 4.38979L16.1532 3.91176C16.8787 3.39432 17.5063 2.7442 18.0001 2.00408Z" fill="white"/>
</svg>

<svg width="18" height="15" fill="none" xmlns="http://www.w3.org/2000/svg"><path d="M18 2.004a7.373 7.373 0 01-2.12.582A3.708 3.708 0 0017.503.544a7.445 7.445 0 01-2.346.897 3.693 3.693 0 00-6.292 3.367A10.483 10.483 0 011.255.948a3.664 3.664 0 00-.5 1.856 3.69 3.69 0 001.642 3.073 3.693 3.693 0 01-1.672-.464v.047a3.696 3.696 0 002.961 3.62 3.74 3.74 0 01-.973.13c-.238 0-.469-.024-.695-.069a3.694 3.694 0 003.449 2.565A7.409 7.409 0 01.88 13.284c-.298 0-.592-.018-.88-.051a10.438 10.438 0 005.66 1.661c6.792 0 10.505-5.626 10.505-10.505l-.013-.478A7.373 7.373 0 0018 2.004z" fill="#fff"/></svg>
